souls/img/mastercard.svg

<svg width="36" height="25" viewBox="0 0 36 25" fill="none" xmlns="http://www.w3.org/2000/svg">
<g clip-path="url(#clip0_0_32)">
<path d="M17.484 3.467C16.151 2.544 14.687 2.083 13.094 2.083C12.0301 2.08103 10.978 2.30604 10.008 2.743C9.0545 3.16037 8.19169 3.75992 7.468 4.508C6.74242 5.27276 6.1674 6.16736 5.773 7.145C5.35204 8.1616 5.13722 9.2517 5.141 10.352C5.141 11.48 5.351 12.554 5.773 13.574C6.16768 14.5517 6.74305 15.4463 7.469 16.211C8.19034 16.958 9.04993 17.5578 10 17.977C10.98 18.417 12.01 18.637 13.094 18.637C14.688 18.637 16.151 18.175 17.484 17.253C16.142 16.1262 15.1728 14.6194 14.704 12.931C14.2141 11.2486 14.2166 9.46107 14.711 7.78C15.1849 6.09811 16.1505 4.5962 17.484 3.467ZM18 3.857C16.707 4.90143 15.7682 6.31974 15.312 7.918C14.8331 9.51282 14.8307 11.2128 15.305 12.809C15.7595 14.4076 16.7016 15.8245 18 16.862C19.2984 15.8245 20.2405 14.4076 20.695 12.809C21.1688 11.213 21.166 9.51341 20.687 7.919C20.2314 6.32014 19.2929 4.9011 18 3.856V3.857ZM18.516 3.467C19.8509 4.59829 20.8166 6.10319 21.289 7.788C21.784 9.508 21.786 11.228 21.297 12.948C20.8301 14.6328 19.8598 16.1348 18.516 17.253C19.849 18.175 21.313 18.636 22.906 18.636C23.99 18.636 25.021 18.416 26 17.976C26.95 17.5571 27.8096 16.9577 28.531 16.211C29.257 15.4464 29.8323 14.5517 30.227 13.574C30.6488 12.5524 30.8636 11.4572 30.859 10.352C30.8627 9.2517 30.6479 8.16161 30.227 7.145C29.8323 6.16728 29.2569 5.27268 28.531 4.508C27.8076 3.76001 26.9452 3.16046 25.992 2.743C25.0219 2.3063 23.9699 2.08131 22.906 2.083C21.313 2.083 19.849 2.544 18.516 3.467ZM30.094 15.218H30.204V15.169H29.937V15.219H30.047V15.495H30.094V15.218ZM30.547 15.495H30.609V15.169H30.531L30.438 15.381L30.344 15.169H30.266V15.495H30.313V15.251L30.406 15.462H30.469L30.547 15.251V15.495ZM30.422 22.656V22.689H30.344V22.64H30.422V22.656ZM30.422 22.803H30.469L30.406 22.721H30.438L30.453 22.705C30.463 22.695 30.469 22.678 30.469 22.656C30.4699 22.6383 30.4642 22.6208 30.453 22.607L30.438 22.591H30.297V22.803H30.344V22.721H30.359L30.422 22.803ZM10.703 21.696C10.703 21.49 10.76 21.322 10.875 21.191C10.9338 21.1257 11.0064 21.0744 11.0875 21.0406C11.1686 21.0069 11.2563 20.9917 11.344 20.996C11.531 20.996 11.682 21.064 11.797 21.2C11.9127 21.3389 11.9738 21.5153 11.969 21.696C11.9768 21.8799 11.9155 22.0601 11.797 22.201C11.7407 22.2651 11.6709 22.3159 11.5925 22.3496C11.5141 22.3834 11.4293 22.3992 11.344 22.396C11.2563 22.4003 11.1686 22.3851 11.0875 22.3514C11.0064 22.3176 10.9338 22.2663 10.875 22.201C10.7565 22.0601 10.6952 21.8799 10.703 21.696ZM18.093 20.98C18.406 20.98 18.588 21.153 18.641 21.5H17.547C17.599 21.153 17.781 20.98 18.094 20.98H18.093ZM23.656 21.696C23.656 21.49 23.714 21.322 23.828 21.191C23.8843 21.1269 23.9541 21.0761 24.0325 21.0424C24.1108 21.0086 24.1957 20.9928 24.281 20.996C24.469 20.996 24.622 21.064 24.742 21.2C24.862 21.335 24.922 21.5 24.922 21.696C24.9298 21.8799 24.8685 22.0601 24.75 22.201C24.6912 22.2663 24.6186 22.3176 24.5375 22.3514C24.4564 22.3851 24.3687 22.4003 24.281 22.396C24.1957 22.3992 24.1108 22.3834 24.0325 22.3496C23.9541 22.3159 23.8843 22.2651 23.828 22.201C23.7095 22.0601 23.6482 21.8799 23.656 21.696ZM27.906 21.696C27.906 21.501 27.966 21.336 28.086 21.199C28.1429 21.1332 28.2136 21.0809 28.2932 21.0458C28.3727 21.0106 28.4591 20.9937 28.546 20.996C28.734 20.996 28.888 21.064 29.008 21.2C29.128 21.335 29.188 21.5 29.188 21.696C29.188 21.902 29.128 22.07 29.008 22.201C28.9498 22.2649 28.8785 22.3154 28.7989 22.3491C28.7193 22.3827 28.6334 22.3987 28.547 22.396C28.4598 22.3984 28.3732 22.3813 28.2935 22.346C28.2137 22.3107 28.1429 22.2581 28.086 22.192C27.9657 22.0552 27.9014 21.8781 27.906 21.696ZM30.375 22.868C30.353 22.8679 30.3314 22.8624 30.312 22.852C30.302 22.852 30.286 22.841 30.266 22.819C30.245 22.797 30.234 22.781 30.234 22.77C30.2242 22.7497 30.2191 22.7275 30.219 22.705C30.219 22.673 30.224 22.651 30.234 22.64C30.234 22.618 30.244 22.597 30.266 22.575L30.281 22.559C30.302 22.559 30.313 22.553 30.313 22.542C30.3321 22.5318 30.3533 22.5263 30.375 22.526C30.406 22.526 30.427 22.532 30.438 22.542L30.5 22.575L30.531 22.64V22.656C30.541 22.678 30.547 22.694 30.547 22.706L30.531 22.721V22.771L30.516 22.786L30.5 22.819C30.48 22.841 30.458 22.852 30.437 22.852C30.427 22.862 30.407 22.868 30.375 22.868ZM9.359 22.803H9.829V21.419C9.829 21.159 9.753 20.95 9.602 20.793C9.451 20.635 9.245 20.551 8.984 20.54C8.651 20.54 8.406 20.67 8.25 20.931C8.104 20.671 7.87 20.541 7.547 20.541C7.42622 20.5397 7.30705 20.5687 7.20045 20.6255C7.09385 20.6823 7.00325 20.765 6.937 20.866V20.606H6.47V22.803H6.938V21.582C6.938 21.192 7.11 20.996 7.454 20.996C7.767 20.996 7.923 21.191 7.923 21.582V22.802H8.376V21.582C8.376 21.192 8.548 20.996 8.892 20.996C9.204 20.996 9.36 21.191 9.36 21.582V22.802L9.359 22.803ZM11.953 22.803H12.406V20.605H11.953V20.865C11.8741 20.7621 11.7723 20.6791 11.6556 20.6227C11.5389 20.5663 11.4106 20.5379 11.281 20.54C11.1398 20.5366 10.9996 20.564 10.87 20.6203C10.7405 20.6766 10.6248 20.7604 10.531 20.866C10.333 21.083 10.234 21.36 10.234 21.696C10.234 22.032 10.334 22.309 10.531 22.526C10.6248 22.6316 10.7405 22.7155 10.87 22.7718C10.9995 22.8281 11.1398 22.8555 11.281 22.852C11.573 22.852 11.797 22.743 11.953 22.526V22.803ZM14.734 22.135C14.734 21.766 14.49 21.549 14 21.485L13.781 21.452C13.541 21.408 13.421 21.332 13.421 21.224C13.421 21.061 13.552 20.98 13.813 20.98C14.053 20.98 14.276 21.04 14.484 21.159L14.672 20.769C14.442 20.616 14.156 20.54 13.812 20.54C13.542 20.54 13.328 20.606 13.172 20.736C13.0954 20.7987 13.0344 20.8783 12.9937 20.9685C12.9529 21.0587 12.9335 21.1571 12.937 21.256C12.937 21.615 13.182 21.826 13.672 21.891L13.875 21.924C14.125 21.967 14.25 22.044 14.25 22.152C14.25 22.336 14.088 22.428 13.766 22.428C13.506 22.428 13.271 22.352 13.062 22.201L12.859 22.575C13.119 22.759 13.422 22.852 13.766 22.852C14.068 22.852 14.305 22.786 14.476 22.656C14.5582 22.597 14.6246 22.5187 14.6696 22.4281C14.7146 22.3374 14.7367 22.2371 14.734 22.136V22.135ZM16.766 22.689L16.641 22.282C16.5176 22.3548 16.3773 22.3941 16.234 22.396C16.036 22.396 15.937 22.276 15.937 22.038V21.045H16.687V20.605H15.937V19.938H15.469V20.606H15.031V21.045H15.469V22.038C15.469 22.58 15.714 22.852 16.203 22.852C16.4031 22.8576 16.5999 22.8006 16.766 22.689ZM18.109 20.54C17.9678 20.5365 17.8275 20.5639 17.698 20.6202C17.5685 20.6765 17.4528 20.7604 17.359 20.866C17.161 21.083 17.062 21.36 17.062 21.696C17.062 22.043 17.164 22.323 17.367 22.534C17.57 22.746 17.828 22.852 18.141 22.852C18.484 22.852 18.771 22.748 19 22.542L18.781 22.184C18.615 22.3383 18.3976 22.4253 18.171 22.428C17.818 22.428 17.604 22.249 17.531 21.891H19.109V21.696C19.109 21.349 19.016 21.069 18.829 20.858C18.7401 20.7549 18.6293 20.6729 18.5048 20.6179C18.3803 20.5629 18.2451 20.5363 18.109 20.54ZM20.594 20.54C20.4813 20.5372 20.3702 20.5663 20.2734 20.624C20.1766 20.6817 20.0981 20.7656 20.047 20.866V20.606H19.578V22.803H20.047V21.566C20.047 21.186 20.197 20.996 20.5 20.996C20.5976 20.9945 20.694 21.0168 20.781 21.061L20.921 20.605C20.818 20.5598 20.7064 20.5377 20.594 20.54ZM21.062 21.696C21.062 22.032 21.164 22.309 21.367 22.526C21.57 22.743 21.844 22.852 22.187 22.852C22.49 22.852 22.74 22.765 22.937 22.592L22.719 22.201C22.531 22.341 22.349 22.407 22.172 22.396C22.0856 22.3987 21.9997 22.3827 21.9201 22.3491C21.8405 22.3154 21.7692 22.2649 21.711 22.201C21.5879 22.0623 21.5233 21.8813 21.531 21.696C21.531 21.49 21.591 21.322 21.711 21.191C21.7691 21.1273 21.8403 21.0768 21.9197 21.0432C21.9991 21.0095 22.0848 20.9934 22.171 20.996C22.3706 20.9962 22.5641 21.0651 22.719 21.191L22.937 20.801C22.7265 20.6267 22.4602 20.5344 22.187 20.541C21.844 20.541 21.57 20.649 21.367 20.866C21.164 21.083 21.062 21.36 21.062 21.696ZM24.891 22.803H25.359V20.605H24.891V20.865C24.8176 20.76 24.719 20.6751 24.6041 20.6183C24.4893 20.5615 24.362 20.5346 24.234 20.54C24.0919 20.5372 23.9508 20.5648 23.8202 20.621C23.6896 20.6773 23.5726 20.7608 23.477 20.866C23.273 21.083 23.172 21.36 23.172 21.696C23.172 22.032 23.273 22.309 23.477 22.526C23.5726 22.6313 23.6896 22.7148 23.8202 22.7711C23.9507 22.8273 24.0919 22.8549 24.234 22.852C24.526 22.852 24.744 22.743 24.891 22.526V22.803ZM26.969 20.54C26.8563 20.5372 26.7452 20.5663 26.6484 20.624C26.5516 20.6817 26.4731 20.7656 26.422 20.866V20.606H25.969V22.803H26.422V21.566C26.422 21.186 26.572 20.996 26.875 20.996C26.9726 20.9945 27.069 21.0168 27.156 21.061L27.296 20.605C27.1937 20.5577 27.0816 20.5354 26.969 20.54ZM29.156 22.803H29.609V19.71H29.156V20.866C29 20.649 28.776 20.54 28.484 20.54C28.3435 20.5385 28.2043 20.5676 28.0762 20.6252C27.9481 20.6829 27.834 20.7678 27.742 20.874C27.538 21.0983 27.4287 21.3929 27.437 21.696C27.437 22.021 27.539 22.296 27.742 22.518C27.945 22.74 28.192 22.852 28.484 22.852C28.786 22.852 29.01 22.743 29.156 22.526V22.803ZM30.375 22.477L30.344 22.494H30.297C30.2735 22.5064 30.2522 22.5227 30.234 22.542C30.204 22.553 30.187 22.575 30.187 22.607C30.1751 22.6382 30.17 22.6716 30.172 22.705C30.172 22.738 30.177 22.765 30.187 22.787C30.187 22.808 30.203 22.83 30.234 22.852C30.2522 22.8714 30.2735 22.8876 30.297 22.9C30.317 22.911 30.344 22.917 30.375 22.917C30.4072 22.9186 30.4394 22.9128 30.469 22.9C30.469 22.89 30.479 22.879 30.5 22.868L30.531 22.852C30.5485 22.8314 30.5642 22.8093 30.578 22.786C30.5891 22.7608 30.5946 22.7335 30.594 22.706C30.5958 22.6722 30.5904 22.6385 30.578 22.607C30.5606 22.5867 30.5448 22.5649 30.531 22.542C30.531 22.532 30.521 22.521 30.5 22.51L30.469 22.493C30.4531 22.4922 30.4373 22.4895 30.422 22.485C30.4067 22.4805 30.3909 22.4778 30.375 22.477ZM36 2.083V22.917C36 23.481 35.802 23.969 35.406 24.381C35.01 24.794 34.542 25 34 25H2C1.458 25 0.989999 24.794 0.593999 24.381C0.402922 24.1887 0.252003 23.9603 0.150025 23.7092C0.0480476 23.458 -0.00295069 23.1891 -1.05501e-06 22.918V2.083C-1.05501e-06 1.52 0.197999 1.031 0.593999 0.618C0.989999 0.206 1.458 0 2 0H34C34.542 0 35.01 0.206 35.406 0.618C35.802 1.031 36 1.519 36 2.083Z" fill="black"/>
</g>
<defs>
<clipPath id="clip0_0_32">
<rect width="36" height="25" fill="white"/>
</clipPath>
</defs>
</svg>

<svg xmlns="http://www.w3.org/2000/svg" width="36" height="25" fill="none"><g clip-path="url(#a)"><path fill="#000" d="M17.484 3.467q-2-1.384-4.39-1.384a7.5 7.5 0 0 0-3.086.66 8 8 0 0 0-2.54 1.765 8.4 8.4 0 0 0-1.695 2.637 8.3 8.3 0 0 0-.632 3.207q0 1.692.632 3.222c.395.978.97 1.872 1.696 2.637A8 8 0 0 0 10 17.977q1.469.66 3.094.66 2.39 0 4.39-1.384a8.67 8.67 0 0 1-2.78-4.322 9.17 9.17 0 0 1 .007-5.151 8.77 8.77 0 0 1 2.773-4.313m.516.39a8.07 8.07 0 0 0-2.688 4.061 8.54 8.54 0 0 0-.007 4.891A8 8 0 0 0 18 16.862a8 8 0 0 0 2.695-4.053 8.54 8.54 0 0 0-.008-4.89A8.07 8.07 0 0 0 18 3.856zm.516-.39a8.77 8.77 0 0 1 2.773 4.321q.742 2.58.008 5.16a8.6 8.6 0 0 1-2.781 4.305q2 1.383 4.39 1.383 1.626 0 3.094-.66a8 8 0 0 0 2.531-1.765 8.4 8.4 0 0 0 1.696-2.637 8.4 8.4 0 0 0 .632-3.222 8.3 8.3 0 0 0-.632-3.207 8.4 8.4 0 0 0-1.696-2.637 8 8 0 0 0-2.539-1.765 7.5 7.5 0 0 0-3.086-.66q-2.39 0-4.39 1.384m11.578 11.751h.11v-.049h-.267v.05h.11v.276h.047zm.453.277h.062v-.326h-.078l-.093.212-.094-.212h-.078v.326h.047v-.244l.093.211h.063l.078-.211zm-.125 7.161v.033h-.078v-.049h.078zm0 .147h.047l-.063-.082h.032l.015-.016q.016-.016.016-.049a.07.07 0 0 0-.016-.049l-.015-.016h-.141v.212h.047v-.082h.015zm-19.719-1.107q0-.309.172-.505a.6.6 0 0 1 .469-.195q.28 0 .453.204a.74.74 0 0 1 .172.496.74.74 0 0 1-.172.505.57.57 0 0 1-.453.195.6.6 0 0 1-.469-.195.74.74 0 0 1-.172-.505m7.39-.716q.469 0 .548.52h-1.094q.078-.52.547-.52zm5.563.716q0-.309.172-.505a.57.57 0 0 1 .453-.195q.282 0 .461.204.18.202.18.496a.74.74 0 0 1-.172.505.6.6 0 0 1-.469.195.57.57 0 0 1-.453-.195.74.74 0 0 1-.172-.505m4.25 0q0-.292.18-.497a.59.59 0 0 1 .46-.203q.282 0 .462.204.18.202.18.496 0 .309-.18.505a.6.6 0 0 1-.461.195.59.59 0 0 1-.461-.204.72.72 0 0 1-.18-.496m2.469 1.172a.14.14 0 0 1-.063-.016q-.015 0-.046-.033-.032-.033-.032-.049a.2.2 0 0 1-.015-.065q0-.048.015-.065 0-.032.032-.065l.015-.016q.032 0 .032-.017.03-.016.062-.016.046 0 .063.016l.062.033.031.065v.016q.016.032.016.05l-.016.015v.05l-.015.015-.016.033q-.03.033-.063.033-.014.016-.062.016m-21.016-.065h.47v-1.384q0-.39-.227-.626-.226-.237-.618-.253-.5 0-.734.391-.219-.39-.703-.39a.72.72 0 0 0-.61.325v-.26H6.47v2.197h.468v-1.221q0-.585.516-.586.47 0 .469.586v1.22h.453v-1.22q0-.585.516-.586.468 0 .468.586v1.22zm2.594 0h.453v-2.198h-.453v.26a.83.83 0 0 0-.672-.325.97.97 0 0 0-.75.326q-.297.326-.297.83t.297.83a.97.97 0 0 0 .75.326q.438 0 .672-.326zm2.781-.668q0-.554-.734-.65l-.219-.033q-.36-.066-.36-.228 0-.244.392-.244.36 0 .671.179l.188-.39q-.344-.23-.86-.229-.405 0-.64.196a.64.64 0 0 0-.235.52q0 .538.735.635l.203.033q.375.065.375.228 0 .276-.484.276-.39 0-.704-.227l-.203.374q.39.276.907.277.453 0 .71-.196a.62.62 0 0 0 .258-.52zm2.032.554-.125-.407a.8.8 0 0 1-.407.114q-.297 0-.297-.358v-.993h.75v-.44h-.75v-.667h-.468v.668h-.438v.439h.438v.993q0 .814.734.814c.2.006.397-.051.563-.163m1.343-2.149a.97.97 0 0 0-.75.326q-.297.326-.297.83 0 .521.305.838.304.318.774.318.515 0 .859-.31l-.219-.358a.9.9 0 0 1-.61.244q-.53 0-.64-.537h1.578v-.195q0-.521-.28-.838a.92.92 0 0 0-.72-.318m2.485 0a.6.6 0 0 0-.547.326v-.26h-.469v2.197h.469v-1.237q0-.57.453-.57a.6.6 0 0 1 .281.065l.14-.456a.8.8 0 0 0-.327-.065m.468 1.156q0 .504.305.83t.82.326q.454 0 .75-.26l-.218-.391q-.282.21-.547.195a.6.6 0 0 1-.461-.195.72.72 0 0 1-.18-.505q0-.309.18-.505a.6.6 0 0 1 .46-.195c.2 0 .393.07.548.195l.218-.39a1.13 1.13 0 0 0-.75-.26q-.515 0-.82.325-.305.326-.305.83m3.829 1.107h.468v-2.198h-.468v.26a.76.76 0 0 0-.657-.325 1 1 0 0 0-.757.326q-.305.326-.305.83t.305.83a1 1 0 0 0 .757.326q.437 0 .657-.326zm2.078-2.263a.6.6 0 0 0-.547.326v-.26h-.453v2.197h.453v-1.237q0-.57.453-.57a.6.6 0 0 1 .281.065l.14-.456a.7.7 0 0 0-.327-.065m2.187 2.263h.453V19.71h-.453v1.156q-.234-.326-.672-.326a.97.97 0 0 0-.742.334 1.17 1.17 0 0 0-.305.822q0 .488.305.822.304.333.742.334.453 0 .672-.326zm1.219-.326-.031.017h-.047a.2.2 0 0 0-.063.048q-.046.017-.047.065a.2.2 0 0 0-.015.098q0 .05.015.082 0 .032.047.065a.2.2 0 0 0 .063.048q.03.017.078.017a.2.2 0 0 0 .094-.017q0-.015.031-.032l.031-.016a1 1 0 0 0 .047-.066.2.2 0 0 0 .016-.08.2.2 0 0 0-.016-.099 1 1 0 0 1-.047-.065q0-.015-.031-.032l-.031-.017a.2.2 0 0 1-.047-.008.2.2 0 0 0-.047-.008M36 2.083v20.834q0 .846-.594 1.464-.593.62-1.406.619H2q-.813 0-1.406-.619A2.05 2.05 0 0 1 0 22.918V2.083Q0 1.238.594.618 1.188 0 2 0h32q.813 0 1.406.618.594.62.594 1.465"/></g><defs><clipPath id="a"><path fill="#fff" d="M0 0h36v25H0z"/></clipPath></defs></svg>
